svg/u1f469_1f3fb_200d_1f9b0.svg

<svg viewBox="0 0 128 128" xmlns="http://www.w3.org/2000/svg">
  <g id="hairGroup_1_">
    <path id="hair_x5F_red_1_" d="M64.57,2.87c-41.01,0-40.68,37.92-40.68,38.52c0,24.56,1.88,59.25,11.71,72.9 c3.9,5.41,11.43,5.71,11.43,5.71L64,119.98l16.97,0.03c0,0,7.53-0.3,11.43-5.71c9.83-13.65,11.71-48.34,11.71-72.9 C104.1,40.79,105.58,2.87,64.57,2.87z" fill="#E63D00"/>
    <radialGradient id="hairHighlights_x5F_red_2_" cx="64" cy="58.4385" gradientTransform="matrix(1 0 0 1.1901 0 -11.1113)" gradientUnits="userSpaceOnUse" r="47.5316">
      <stop offset="0.7936" stop-color="#F98B25" stop-opacity="0"/>
      <stop offset="1" stop-color="#F98B25"/>
    </radialGradient>
    <path id="hairHighlights_x5F_red_1_" d="M64.57,2.87 c-41.01,0-40.68,37.92-40.68,38.52c0,24.56,1.88,59.25,11.71,72.9c3.9,5.41,11.43,5.71,11.43,5.71L64,119.98l16.97,0.03 c0,0,7.53-0.3,11.43-5.71c9.83-13.65,11.71-48.34,11.71-72.9C104.1,40.79,105.58,2.87,64.57,2.87z" fill="url(#hairHighlights_x5F_red_2_)"/>
  </g>
  <g id="shirt">
    <linearGradient id="SVGID_1_" gradientUnits="userSpaceOnUse" x1="64.005" x2="64.005" y1="94.1927" y2="122.1381">
      <stop offset="0" stop-color="#651FFF"/>
      <stop offset="0.7047" stop-color="#5914F2"/>
      <stop offset="1" stop-color="#530EEB"/>
    </linearGradient>
    <path d="M64.13,94.45H64c-25.65,0.03-51.46,7.55-51.46,25.44v4.07h1.5h1.5h96.93h1.49h1.51v-4.07 C115.46,103.02,89.9,94.45,64.13,94.45z" fill="url(#SVGID_1_)"/>
  </g>
  <path id="neck" d="M73.08,90.08H54.92v9.98c0,4.51,3.7,8.17,8.26,8.17h1.65c4.56,0,8.26-3.66,8.26-8.17v-9.98 H73.08z" fill="#EDC391"/>
  <g id="face">
    <g id="head">
      <path d="M64,14.91c-17.2,0-33.13,12.79-33.13,39.91c0,21.79,13.49,34.67,25.23,38.83 c2.8,0.99,5.5,1.49,7.9,1.49c2.38,0,5.07-0.49,7.85-1.47c11.76-4.14,25.28-17.03,25.28-38.84C97.13,27.7,81.2,14.91,64,14.91z" fill="#F9DDBD"/>
    </g>
    <g id="eyes">
      <ellipse cx="47.57" cy="58.87" fill="#312D2D" rx="4.87" ry="5.04"/>
      <ellipse cx="80.43" cy="58.87" fill="#312D2D" rx="4.87" ry="5.04"/>
    </g>
    <path id="nose" d="M67.82,68.05c-0.1-0.04-0.21-0.07-0.32-0.08h-6.99c-0.11,0.01-0.21,0.04-0.32,0.08 c-0.63,0.26-0.98,0.91-0.68,1.61s1.69,2.66,4.49,2.66s4.19-1.96,4.49-2.66C68.8,68.97,68.45,68.31,67.82,68.05z" fill="#DBA689"/>
    <path id="mouth" d="M72.31,76.14c-3.15,1.87-13.46,1.87-16.61,0c-1.81-1.07-3.65,0.57-2.9,2.21 c0.74,1.61,6.37,5.36,11.23,5.36c4.87,0,10.42-3.75,11.16-5.36C75.94,76.71,74.12,75.06,72.31,76.14z" fill="#444444"/>
    <g id="eyebrows_x5F_red">
      <path d="M54.98,49.82c-0.93-1.23-3.07-3.01-7.23-3.01s-6.31,1.79-7.23,3.01c-0.41,0.54-0.31,1.17-0.02,1.55 c0.26,0.35,1.04,0.68,1.9,0.39c0.86-0.29,2.54-1.16,5.35-1.18c2.81,0.02,4.49,0.89,5.35,1.18c0.86,0.29,1.64-0.03,1.9-0.39 C55.29,50.99,55.39,50.36,54.98,49.82z" fill="#454140"/>
      <path d="M87.48,49.82c-0.93-1.23-3.07-3.01-7.23-3.01c-4.16,0-6.31,1.79-7.23,3.01 c-0.41,0.54-0.31,1.17-0.02,1.55c0.26,0.35,1.04,0.68,1.9,0.39c0.86-0.29,2.54-1.16,5.35-1.18c2.81,0.02,4.49,0.89,5.35,1.18 c0.86,0.29,1.64-0.03,1.9-0.39C87.79,50.99,87.89,50.36,87.48,49.82z" fill="#454140"/>
    </g>
  </g>
  <g id="hairGroup">
    <path id="hair_x5F_red" d="M64.57,2.87c-41.01,0-40.68,37.92-40.68,38.52c0,7.76,0.19,16.53,0.75,25.32 l6.72-0.02c-0.06-2.92,1.99-20.97,8.08-22.34c22.36-5.02,35.01-16.89,35.01-16.89c3.29,7.19,13.58,14.19,17.27,16.86 c3.03,2.19,3.96,18.55,3.9,22.38h7.71c0-0.05,0.02-0.1,0.02-0.16c0.56-8.75,0.74-17.46,0.74-25.17 C104.1,40.79,105.58,2.87,64.57,2.87z" fill="#E63D00"/>
    <radialGradient id="hairHighlights_x5F_red_3_" cx="64.3333" cy="62.463" gradientTransform="matrix(1 0 0 1.2135 0 -13.3328)" gradientUnits="userSpaceOnUse" r="49.788">
      <stop offset="0.7945" stop-color="#F98B25" stop-opacity="0"/>
      <stop offset="1" stop-color="#F98B25"/>
    </radialGradient>
    <path id="hairHighlights_x5F_red" d="M64.57,2.87c-41.01,0-40.68,37.92-40.68,38.52 c0,7.76,0.19,16.53,0.75,25.32l6.72-0.02c-0.06-2.92,1.99-20.97,8.08-22.34c22.36-5.02,35.01-16.89,35.01-16.89 c3.29,7.19,13.58,14.19,17.27,16.86c3.03,2.19,3.96,18.55,3.9,22.38h7.71c0-0.05,0.02-0.1,0.02-0.16 c0.56-8.75,0.74-17.46,0.74-25.17C104.1,40.79,105.58,2.87,64.57,2.87z" fill="url(#hairHighlights_x5F_red_3_)"/>
  </g>
</svg>

<svg viewBox="0 0 128 128" xmlns="http://www.w3.org/2000/svg">
  <defs>
    <linearGradient id="SVGID_1_" gradientUnits="userSpaceOnUse" x1="64.005" x2="64.005" y1="94.1927" y2="122.1381">
      <stop offset="0" stop-color="#651FFF"/>
      <stop offset="0.7047" stop-color="#5914F2"/>
      <stop offset="1" stop-color="#530EEB"/>
    </linearGradient>
    <radialGradient id="hairHighlights_x5F_red_2_" cx="64" cy="49.102058" gradientTransform="matrix(1 0 0 1.1901 0 0)" gradientUnits="userSpaceOnUse" r="47.5316">
      <stop offset="0.7936" stop-color="#F98B25" stop-opacity="0"/>
      <stop offset="1" stop-color="#F98B25"/>
    </radialGradient>
    <radialGradient id="hairHighlights_x5F_red_3_" cx="64.3333" cy="51.475938" gradientTransform="matrix(1 0 0 1.2135 0 0)" gradientUnits="userSpaceOnUse" r="49.788">
      <stop offset="0.7945" stop-color="#F98B25" stop-opacity="0"/>
      <stop offset="1" stop-color="#F98B25"/>
    </radialGradient>
  </defs>
  <path id="hair_x5F_red_1_" d="M64.57,2.87 C23.56,2.87 23.89,40.79 23.89,41.39 C23.89,65.95 25.77,100.64 35.6,114.29 C39.5,119.7 47.03,120 47.03,120 L64,119.98 L80.97,120.01 C80.97,120.01 88.5,119.71 92.4,114.3 C102.23,100.65 104.11,65.96 104.11,41.4 C104.1,40.79 105.58,2.87 64.57,2.87 Z" fill="#E63D00"/>
  <path id="hairHighlights_x5F_red_1_" d="M64.57,2.87 C23.56,2.87 23.89,40.79 23.89,41.39 C23.89,65.95 25.77,100.64 35.6,114.29 C39.5,119.7 47.03,120 47.03,120 L64,119.98 L80.97,120.01 C80.97,120.01 88.5,119.71 92.4,114.3 C102.23,100.65 104.11,65.96 104.11,41.4 C104.1,40.79 105.58,2.87 64.57,2.87 Z" fill="url(#hairHighlights_x5F_red_2_)"/>
  <path d="M64.13,94.45 L64,94.45 C38.35,94.48 12.54,102 12.54,119.89 L12.54,123.96 L14.04,123.96 L15.54,123.96 L112.47,123.96 L113.96,123.96 L115.47,123.96 L115.47,119.89 C115.46,103.02 89.9,94.45 64.13,94.45 Z" fill="url(#SVGID_1_)"/>
  <path id="neck" d="M73.08,90.08 L54.92,90.08 L54.92,100.06 C54.92,104.57 58.62,108.23 63.18,108.23 L64.83,108.23 C69.39,108.23 73.09,104.57 73.09,100.06 L73.09,90.08 L73.08,90.08 Z" fill="#EDC391"/>
  <path d="M64,14.91 C46.8,14.91 30.87,27.7 30.87,54.82 C30.87,76.61 44.36,89.49 56.1,93.65 C58.9,94.64 61.6,95.14 64,95.14 C66.38,95.14 69.07,94.65 71.85,93.67 C83.61,89.53 97.13,76.64 97.13,54.83 C97.13,27.7 81.2,14.91 64,14.91 Z" fill="#F9DDBD"/>
  <path d="M52.44,58.87 A4.87 5.04 0 1 1 42.7,58.87 A4.87 5.04 0 1 1 52.44,58.87 Z" fill="#312D2D"/>
  <path d="M85.3,58.87 A4.87 5.04 0 1 1 75.56,58.87 A4.87 5.04 0 1 1 85.3,58.87 Z" fill="#312D2D"/>
  <path id="nose" d="M67.82,68.05 C67.72,68.01 67.61,67.98 67.5,67.97 L60.51,67.97 C60.4,67.98 60.3,68.01 60.19,68.05 C59.56,68.31 59.21,68.96 59.51,69.66 C59.81,70.36 61.2,72.32 64,72.32 C66.8,72.32 68.19,70.36 68.49,69.66 C68.8,68.97 68.45,68.31 67.82,68.05 Z" fill="#DBA689"/>
  <path id="mouth" d="M72.31,76.14 C69.16,78.01 58.85,78.01 55.7,76.14 C53.89,75.07 52.05,76.71 52.8,78.35 C53.54,79.96 59.17,83.71 64.03,83.71 C68.9,83.71 74.45,79.96 75.19,78.35 C75.94,76.71 74.12,75.06 72.31,76.14 Z" fill="#444444"/>
  <path d="M54.98,49.82 C54.05,48.59 51.91,46.81 47.75,46.81 C43.59,46.81 41.44,48.6 40.52,49.82 C40.11,50.36 40.21,50.99 40.5,51.37 C40.76,51.72 41.54,52.05 42.4,51.76 C43.26,51.47 44.94,50.6 47.75,50.58 C50.56,50.6 52.24,51.47 53.1,51.76 C53.96,52.05 54.74,51.73 55,51.37 C55.29,50.99 55.39,50.36 54.98,49.82 Z" fill="#454140"/>
  <path d="M87.48,49.82 C86.55,48.59 84.41,46.81 80.25,46.81 C76.09,46.81 73.94,48.6 73.02,49.82 C72.61,50.36 72.71,50.99 73,51.37 C73.26,51.72 74.04,52.05 74.9,51.76 C75.76,51.47 77.44,50.6 80.25,50.58 C83.06,50.6 84.74,51.47 85.6,51.76 C86.46,52.05 87.24,51.73 87.5,51.37 C87.79,50.99 87.89,50.36 87.48,49.82 Z" fill="#454140"/>
  <path id="hair_x5F_red" d="M64.57,2.87 C23.56,2.87 23.89,40.79 23.89,41.39 C23.89,49.15 24.08,57.92 24.64,66.71 L31.36,66.69 C31.3,63.77 33.35,45.72 39.44,44.35 C61.8,39.33 74.45,27.46 74.45,27.46 C77.74,34.65 88.03,41.65 91.72,44.32 C94.75,46.51 95.68,62.87 95.62,66.7 L103.33,66.7 C103.33,66.65 103.35,66.6 103.35,66.54 C103.91,57.79 104.09,49.08 104.09,41.37 C104.1,40.79 105.58,2.87 64.57,2.87 Z" fill="#E63D00"/>
  <path id="hairHighlights_x5F_red" d="M64.57,2.87 C23.56,2.87 23.89,40.79 23.89,41.39 C23.89,49.15 24.08,57.92 24.64,66.71 L31.36,66.69 C31.3,63.77 33.35,45.72 39.44,44.35 C61.8,39.33 74.45,27.46 74.45,27.46 C77.74,34.65 88.03,41.65 91.72,44.32 C94.75,46.51 95.68,62.87 95.62,66.7 L103.33,66.7 C103.33,66.65 103.35,66.6 103.35,66.54 C103.91,57.79 104.09,49.08 104.09,41.37 C104.1,40.79 105.58,2.87 64.57,2.87 Z" fill="url(#hairHighlights_x5F_red_3_)"/>
</svg>
